X: 1
T: Maudabawn Chapel
C: Ed Reavy
%date: 1950s
R: Reel
N: The local chapel in Ed's parish where he first learned the simple ways of faith.
Z: Joe Reavy
M: 2/2
L: 1/8
K: Edor
EF \
[| G{F}EF{E}D ECDB,      | G,A,B,D ECEB, | G,A,B,D GABd | gabg    eaaf  |
|  gabg       efge       | dfed    Bcd2  | e{f}gfa gbec | dBA=c   BEEF  |]
[| G{F}EF{E}D ECDB,      | G,A,B,D ECDB, | G,A,B,D GABd | gabg    eaaf  |
|  gfga       b{a}ga{g}f | gfed    efge  | dfe=c   BcdB | A=cBA   GEED  |]
|: E2BE       dEBE       | GABG    AFDF  | EDEF    GFGB | A2F{E}D A,DFD |
|  E2BE       dEBE       | BAFA    Bcde  | f2a{g}f gfec | dBA=c   BEED  :|
